X:1
T:Brian O'Lin
B:Singing Together, Spring 1982, BBC Publications
F:http://www.folkinfo.org/songs
M:4/4     %Meter
L:1/8     %
K:D
A2 AG F2 FE |D2 D2 D3
w:Bri-an O' Lin was a Scots-man born,
E |F2 A2 A2 EF |G2 A2 F3
w:His head was bald and his bread was shorn,
A |B2 cc d2 cB |A2 AG F2
w:His tem-ples far out and his eyes were far in.
 AA |A2 BA G2 CC |G2 FE E2 z2 |
w:"I'm a won-der-ful beau-ty," said Bri-an O' Lin.
A2 Bc d2 FG |A2 BA A4 |E2 FG G2 AG |(F3 E) D2 z2 |
w:Oh to my tooth and my link a lum lee, Bri-an O' Lin was a ro--ver
F4 D4 |FD F2 A2 AA |A2 (BA) G2 C2 |G2 FE D4 |]
w:Brew, screw ri-vet the tin, Oh a rare old* man was Bri-an O' Lyn
W:Brian O'Lin was a Scotsman born,
W:His head was bald and his beard was shorn,
W:His temples far out and his eyes were far in.
W:I'm a wonderful beauty," said Brian O' Lin.
W:
W:(Chorus)
W:Oh to my tooth and my link a lum lee,
W:Brian O' Lin was a rover
W:Brew, screw rivet the tin,
W:Oh a rare old man was Brian O' Lin.
W:
W:
W:Brian O'Lin had no breeches to wear;
W:He bought him a sheepskin to make a pair.
W:With the fleshy side out and the wooly side in.
W:"They're pleasant and cool," said Brian O'Lin.
W:
W:Brian O'Lin his wife, and wife's mother,
W:They all went out a-walking together;
W:And all through their clothes you might see the skin.
W:"They're elegantly dressed," said Brian O'Lin.
W:
W:Brian O'Lin his wife, and wife's mother,
W:They all went over the bridge together.
W:The bridge it broke down and they all tumbled in.
W:"We'll go home by water," said Brian O'Lin.
W:
W:
